X:1
T:Title
L:1/8
M:6/8
K:Eb
V:1 treble nm="Grand Piano"
V:1
 z3[Q:1/4=140] C2 E | G2 G F2 E | G6- | G3 C2 E | G2 A G2 F | F3- F2 E | D6- | D3 D2 E | %8
 F2 F E2 D | F6- | F3 D2 E | F2 G F2 E | C6- | C3 G2 A | B2 c c2 B | c6- | c3 B2 c | d2 c B2 A | %18
 G6- | G3 G2 A | B2 c c2 B | c6- | c3 B2 c | d2 c B2 A | G6- | G3 z3 |] %26

